packages/core/src/svgs/mnst.svg

<svg width="24" height="24" viewBox="0 0 24 24" fill="none" xmlns="http://www.w3.org/2000/svg">
<g clip-path="url(#clip0_31_14074)">
<path d="M0 0H24V24H0V0Z" fill="#03022C"/>
<path d="M15.9557 16.097C15.5357 16.3199 15.0814 16.4913 14.6014 16.5941C14.7472 16.0884 14.8243 15.5527 14.8243 14.9999C14.8243 11.9227 12.4243 9.42843 9.46715 9.42843C9.09001 9.42843 8.72144 9.47129 8.36572 9.54843C9.02572 7.24272 11.0743 5.57129 13.5 5.57129C16.4572 5.57129 18.8572 8.06557 18.8572 11.1427C18.8572 12.5313 18.3686 13.7999 17.5586 14.777C17.3668 14.6375 17.1341 14.5656 16.8971 14.5726C16.66 14.5795 16.432 14.6649 16.2487 14.8154C16.0654 14.9659 15.9371 15.1729 15.8841 15.404C15.8311 15.6352 15.8563 15.8774 15.9557 16.0927V16.097Z" fill="#C5E2E6"/>
<path d="M17.04 6.96415L13.0972 10.907C12.4807 10.3095 11.7265 9.87301 10.9013 9.63607C10.0761 9.39913 9.2053 9.36903 8.36572 9.54843C9.02572 7.24272 11.0743 5.57129 13.5 5.57129C14.8586 5.57129 16.0972 6.09843 17.04 6.96415Z" fill="#A8D3D9"/>
<path d="M13.0715 9.85693C13.9 9.85693 14.5715 9.18536 14.5715 8.35693C14.5715 7.52851 13.9 6.85693 13.0715 6.85693C12.2431 6.85693 11.5715 7.52851 11.5715 8.35693C11.5715 9.18536 12.2431 9.85693 13.0715 9.85693Z" fill="#8EBAC3"/>
<path d="M10.0713 9.00007C10.4264 9.00007 10.7142 8.71225 10.7142 8.35721C10.7142 8.00217 10.4264 7.71436 10.0713 7.71436C9.71628 7.71436 9.42847 8.00217 9.42847 8.35721C9.42847 8.71225 9.71628 9.00007 10.0713 9.00007Z" fill="#8EBAC3"/>
<path d="M15.8571 11.143C16.3305 11.143 16.7143 10.7592 16.7143 10.2859C16.7143 9.81247 16.3305 9.42871 15.8571 9.42871C15.3838 9.42871 15 9.81247 15 10.2859C15 10.7592 15.3838 11.143 15.8571 11.143Z" fill="#A8D3D9"/>
<path d="M15.4286 13.2859C15.6653 13.2859 15.8571 13.094 15.8571 12.8573C15.8571 12.6206 15.6653 12.4287 15.4286 12.4287C15.1919 12.4287 15 12.6206 15 12.8573C15 13.094 15.1919 13.2859 15.4286 13.2859Z" fill="#A8D3D9"/>
<path d="M11.9614 17.9145C12.5222 17.5599 12.9839 17.0687 13.3032 16.4871C13.6225 15.9054 13.789 15.2523 13.7871 14.5887C13.7916 14.08 13.6959 13.5753 13.5054 13.1035C13.3148 12.6317 13.0332 12.2021 12.6766 11.8391C12.3201 11.4762 11.8955 11.187 11.4271 10.9882C10.9588 10.7893 10.4559 10.6847 9.94711 10.6802C8.96996 10.6802 7.98425 11.173 7.20425 11.9187C7.61568 12.1759 8.13425 12.5316 8.31854 12.7159C7.74797 12.7885 7.21425 13.0372 6.79174 13.4274C6.36923 13.8177 6.07896 14.33 5.96139 14.893C6.32139 14.8116 7.12711 14.7345 7.43568 15.0602C7.18282 15.4673 6.36854 16.6802 5.14282 18.2702C5.86282 18.4845 7.64997 18.5145 9.05139 16.8773C9.15425 17.1259 9.23568 17.7773 8.74282 18.3902C9.33425 18.5273 10.7271 18.3902 11.5928 16.7445C11.6571 17.0102 11.79 17.4987 11.9614 17.9187V17.9145Z" fill="#FF3E87"/>
</g>
<defs>
<clipPath id="clip0_31_14074">
<rect width="24" height="24" fill="white"/>
</clipPath>
</defs>
</svg>

<svg xmlns="http://www.w3.org/2000/svg" width="24" height="24" fill="none" viewBox="0 0 24 24"><g clip-path="url(#a)"><path fill="#03022C" d="M0 0h24v24H0z"/><path fill="#C5E2E6" d="M15.956 16.097c-.42.223-.875.394-1.355.497A5.8 5.8 0 0 0 14.824 15c0-3.077-2.4-5.572-5.357-5.572-.377 0-.746.043-1.101.12.66-2.305 2.708-3.977 5.134-3.977 2.957 0 5.357 2.495 5.357 5.572a5.68 5.68 0 0 1-1.298 3.634 1.071 1.071 0 0 0-1.603 1.316z"/><path fill="#A8D3D9" d="m17.04 6.964-3.943 3.943a5.23 5.23 0 0 0-4.731-1.359c.66-2.305 2.708-3.977 5.134-3.977 1.359 0 2.597.527 3.54 1.393"/><path fill="#8EBAC3" d="M13.072 9.857a1.5 1.5 0 1 0 0-3 1.5 1.5 0 0 0 0 3M10.071 9a.643.643 0 1 0 0-1.286.643.643 0 0 0 0 1.286"/><path fill="#A8D3D9" d="M15.857 11.143a.857.857 0 1 0 0-1.714.857.857 0 0 0 0 1.714M15.429 13.286a.429.429 0 1 0 0-.857.429.429 0 0 0 0 .857"/><path fill="#FF3E87" d="M11.961 17.915a3.92 3.92 0 0 0 1.826-3.326 3.875 3.875 0 0 0-3.84-3.909c-.977 0-1.963.493-2.743 1.239.412.257.93.613 1.115.797a2.765 2.765 0 0 0-2.358 2.177c.36-.081 1.166-.159 1.475.167-.253.407-1.067 1.62-2.293 3.21.72.215 2.507.245 3.908-1.393.103.249.185.9-.308 1.513.591.137 1.984 0 2.85-1.646.064.266.197.755.368 1.175z"/></g><defs><clipPath id="a"><path fill="#fff" d="M0 0h24v24H0z"/></clipPath></defs></svg>
